app/[lang]/(home)/(new-home)/assets/aiagent-appicons/claude.svg

<svg width="32" height="32" viewBox="0 0 32 32" fill="none" xmlns="http://www.w3.org/2000/svg">
<g opacity="0.5" clip-path="url(#clip0_66_438)">
<path d="M15.168 32L14.368 31.392L13.92 30.4L14.368 28.416L14.88 25.856L15.296 23.808L15.68 21.28L15.904 20.448L15.872 20.384L15.712 20.416L13.792 23.04L10.88 26.976L8.576 29.408L8.032 29.632L7.072 29.152L7.168 28.256L7.712 27.488L10.88 23.424L12.8 20.896L14.048 19.456L14.016 19.264H13.952L5.504 24.768L4 24.96L3.328 24.352L3.424 23.36L3.744 23.04L6.272 21.28L12.576 17.76L12.672 17.44L12.576 17.28H12.256L11.2 17.216L7.616 17.12L4.512 16.992L1.472 16.832L0.704 16.672L0 15.712L0.064 15.232L0.704 14.816L1.632 14.88L3.648 15.04L6.688 15.232L8.896 15.36L12.16 15.712H12.672L12.736 15.488L12.576 15.36L12.448 15.232L9.28 13.12L5.888 10.88L4.096 9.568L3.136 8.896L2.656 8.288L2.464 6.944L3.328 5.984L4.512 6.08L4.8 6.144L5.984 7.072L8.512 9.024L11.84 11.488L12.32 11.872L12.544 11.744V11.648L12.32 11.296L10.528 8.032L8.608 4.704L7.744 3.328L7.52 2.496C7.43467 2.208 7.392 1.888 7.392 1.536L8.384 0.192001L8.928 0L10.272 0.192001L10.816 0.672001L11.648 2.56L12.96 5.536L15.04 9.568L15.648 10.784L15.968 11.872L16.096 12.224H16.32V12.032L16.48 9.728L16.8 6.944L17.12 3.36L17.216 2.336L17.728 1.12L18.72 0.480001L19.488 0.832001L20.128 1.76L20.032 2.336L19.68 4.8L18.912 8.672L18.432 11.296H18.72L19.04 10.944L20.352 9.216L22.56 6.464L23.52 5.376L24.672 4.16L25.408 3.584H26.784L27.776 5.088L27.328 6.656L25.92 8.448L24.736 9.952L23.04 12.224L22.016 14.048L22.112 14.176H22.336L26.144 13.344L28.224 12.992L30.656 12.576L31.776 13.088L31.904 13.6L31.456 14.688L28.832 15.328L25.76 15.936L21.184 17.024L21.12 17.056L21.184 17.152L23.232 17.344L24.128 17.408H26.304L30.336 17.696L31.392 18.4L32 19.232L31.904 19.904L30.272 20.704L28.096 20.192L22.976 18.976L21.248 18.56H20.992V18.688L22.464 20.128L25.12 22.528L28.48 25.632L28.64 26.4L28.224 27.04L27.776 26.976L24.832 24.736L23.68 23.744L21.12 21.6H20.96V21.824L21.536 22.688L24.672 27.392L24.832 28.832L24.608 29.28L23.776 29.568L22.912 29.408L21.056 26.848L19.168 23.936L17.632 21.344L17.472 21.472L16.544 31.136L16.128 31.616L15.168 32Z" fill="#D97757"/>
</g>
<defs>
<clipPath id="clip0_66_438">
<rect width="32" height="32" fill="white"/>
</clipPath>
</defs>
</svg>

<svg xmlns="http://www.w3.org/2000/svg" fill="none" viewBox="0 0 32 32">
  <g clip-path="url(#a)" opacity=".5">
    <path
      fill="#D97757"
      d="m15.17 32-.8-.6-.45-1 .45-1.98.51-2.56.42-2.05.38-2.53.22-.83-.03-.07-.16.04-1.92 2.62-2.91 3.94-2.3 2.43-.55.22-.96-.48.1-.9.54-.76 3.17-4.07 1.92-2.52 1.25-1.44-.03-.2h-.07l-8.45 5.5-1.5.2-.67-.6.1-1 .31-.32 2.53-1.76 6.3-3.52.1-.32-.1-.16h-.31l-1.06-.06-3.58-.1-3.1-.13-3.05-.16-.77-.16-.7-.96.06-.48.64-.41.93.06 2.02.16 3.04.2 2.2.12 3.27.35h.51l.07-.22-.16-.13-.13-.13-3.17-2.11-3.4-2.24L4.1 9.57l-.96-.67-.48-.61-.2-1.35.87-.96 1.18.1.29.06 1.18.93 2.53 1.95 3.33 2.47.48.38.22-.13v-.1l-.22-.34-1.8-3.27L8.62 4.7l-.87-1.37-.22-.83c-.09-.3-.13-.61-.13-.96l1-1.35.54-.19 1.34.2.55.47.83 1.89 1.31 2.98 2.08 4.03.6 1.21.33 1.1.13.34h.22v-.19l.16-2.3.32-2.79.32-3.58.1-1.02.5-1.22 1-.64.77.35.64.93-.1.58-.35 2.46-.77 3.87-.48 2.63h.29l.32-.36 1.31-1.72 2.21-2.76.96-1.08 1.15-1.22.74-.58h1.37l1 1.5-.45 1.58-1.41 1.79-1.18 1.5-1.7 2.27-1.02 1.83.1.13h.22l3.8-.84 2.08-.35 2.44-.41 1.12.5.12.52-.44 1.09-2.63.64-3.07.6-4.58 1.1-.06.03.06.1 2.05.18.9.07h2.17l4.04.29 1.05.7.61.83-.1.67-1.63.8-2.17-.5-5.12-1.22-1.73-.42h-.26v.13l1.47 1.44 2.66 2.4 3.36 3.1.16.77-.42.64-.44-.06-2.95-2.24-1.15-1-2.56-2.14h-.16v.22l.58.87 3.13 4.7.16 1.44-.22.45-.83.29-.87-.16-1.85-2.56-1.9-2.91-1.53-2.6-.16.13-.93 9.67-.41.48-.96.38Z"
    />
  </g>
  <defs>
    <clipPath id="a"><path fill="#fff" d="M0 0h32v32H0z" /></clipPath>
  </defs>
</svg>
